X: 16
T:Princess Royal, Sherborne 2
M:4/4
L:1/8
A:Sherborne
P:AAB(CB)2
K:F
P:A
cB|ABAG F2c2|ABAG F2c2|d2c2 B2A2|c2B2 A2A2|
B2A2 G2F2|EFED C2B2|A3F  G2c2|F4   F2 ||
P:B
c2|d2c2 d2e2|f2F2 F4  |f2fe d2c2|ABAG F3F |
F2G2 A3A |B2d2 f3f |e2c2 d2d2|c2A2 B3B |
B2A2 G2F2|EFED C2B2|A3F  G2c2|F4   F2 ||
P:C
M:2/4 
L:1/8
c3B|\
M:2/2
A3B  A3G |F4   c3B |A3B  A3G |F4   B3c |
d4   d3c |B4   d4  |c4   c3B |A4   c3A |
B2A2 G2F2|EFED C2B2|A3F  G2c2|F4   F2 ||
